!!!COM: Tagore, Rabindranath
!!!CDT: 1861-1941
!!!OTL: National Anthem, Bangladesh
!!!ENC: Davis, Matthew J.
!!Vocal Line Only
**kern
*clefG2
*k[f#]
*X:
*M3/8
=1-
8r
8g
8a
==2
8f#
(8g
8f#)
=3
(83
8d
16e
16d)
=4
(8c
[4B
=5
8B)]
8B
8c
=6
8d
(16d
16e
16f
16g)
=7
8f#
(8e
16d
16e)
=8
8c
(4d
=9
8e
8f#
8e
=10
4d)
8d
=11
8d
4d
=12
(16e
16g)
4g
=13
8a
(8a
8g)
=14
8a
(8a
16b
16cc)
=15
8b
4g
=16
8a
(8a
16b
16cc)
=17
(8aq
8b)
[4a
=18
&[4.a]
=19
8a&]
8dd
8dd
=20
8dd
4cc
=21
8b
(8a
8b)
=22
(16g
16a)
4f#
=24
8g
(16f#
16g
8a)
=24
8f#
(8g
8f#)
=25
(8e
8d
16e
16d)
=26
(8c
[4B
=27
8B])
8B
8c
=28
8d
(16d
16e
16f#
16g
=29
8f#
(8e
16d
16e)
=30
!Measures 30-95 were originally enclosed in repeats, but are here realized.
8c
(4d
=31
8e
8f#
8e
=32
[4.d)
=33
8d]
8b
8f#
==34
8g
4b
=35
8b
(8b
8cc#)
=36
8dd
(8dd
16ee
16ff#)
=37
8ee
(8dd
16ee
16dd)
=38
8cc#
(8dd
16ccn
[16b
=39
8b])
8b
8cc#
=40
8cc#
(4dd
=41
8ee
8ff#
8ee
=42
[4.dd
=43
8dd])
8cc#
8cc#
=44
(4.cc#
=45
4.dd)
=46
(16cc#
16dd
16cc#)
(16ee
8dd)
=47
(16ccn
16b)
(8b
16a
16g)
==48
8g
4b
=49
8b
(8b
8cc#)
=50
8dd
(8dd
16ee
16ff#)
=51
8ee
(8dd
16ee
16dd)
=52
8cc#
(8dd
16ccn
[16b
=53
8b])
8b
8cc#
=54
!First Ending
8cc#
(4dd
==55
8ee
8ff#
8ee
=56
[4.dd)
!End of First Ending
==57
8dd]
8cc#
8cc#
=58
4cc#
8dd
=59
8dd
(8dd
8ee)
=60
(16ccn
16dd)
4cc
=61
8b
(8a
8g)
=62
8a
8cc
8cc
=63
8b
[4a
=64
&[4.a]
=65
8a]
8dd
8dd
=66
4dd
8cc
=67
8b
(8a
8b)
=68
8g
(16f#
16g
8a)
=69
8f#
(8g
8f#)
=70
(8e
8d
16e
16d)
=71
(8c
[4B
=73
8B])
8B
8c
=74
8d
(16d
16e
16f#
16g)
=75
8f#
(8e
16d
16e)
=76
8c
(4d
=77
8e
8f#
8e
=78
4.d)
==79
[4.d
=80
4d]
8d
=81
8d
(8d
16e
16d)
=82
8c
(8d
16e)
16d
=83
(8c
[4B
=84
4B])
8B
=85
8B
(8B
8c)
=86
(8d
4f#)
=87
8f#
(16f#
16g)
(8a
=88
&(4f#
4f#)&)
=89
8f#
4d
=90
8e
4f#
=91
(8g
8a)
(16b
16a)
=92
8g
4f#
=93
8d
4f#
=94
8f#
(8g
8f#)
=95
8e
(8d
16e
16d)
==30
!Measures 30-95 contains repeat instructions which have been realized
8c
(4d
=31
8e
8f#
8e
=32
[4.d)
=33
8d]
8b
8f#
==34
8g
4b
=35
8b
(8b
8cc#)
=36
8dd
(8dd
16ee
16ff#)
=37
8ee
(8dd
16ee
16dd)
=38
8cc#
(8dd
16ccn
[16b
=39
8b])
8b
8cc#
=40
8cc#
(4dd
=41
8ee
8ff#
8ee
=42
[4.dd
=43
8dd])
8cc#
8cc#
=44
(4.cc#
=45
4.dd)
=46
(16cc#
16dd
16cc#)
(16ee
8dd)
=47
(16ccn
16b)
(8b
16a
16g)
==48
8g
4b
=49
8b
(8b
8cc#)
=50
8dd
(8dd
16ee
16ff#)
=51
8ee
(8dd
16ee
16dd)
=52
8cc#
(8dd
16ccn
[16b
=53
8b])
8b
8cc#
=54
8cc#
(4dd
==57
!Second Ending
8dd]
8cc#
8cc#
=58
4cc#
8dd
=59
8dd
(8dd
8ee)
=60
(16ccn
16dd)
4cc
=61
8b
(8a
8g)
=62
8a
8cc
8cc
=63
8b
[4a
=64
&[4.a]
=65
8a]
8dd
8dd
=66
4dd
8cc
=67
8b
(8a
8b)
=68
8g
(16f#
16g
8a)
=69
8f#
(8g
8f#)
=70
(8e
8d
16e
16d)
=71
(8c
[4B
=73
8B])
8B
8c
=74
8d
(16d
16e
16f#
16g)
=75
8f#
(8e
16d
16e)
=76
8c
(4d
=77
8e
8f#
8e
=78
4.d)
==|!
*-
